icons/ClipboardList.svg

<svg width="24" height="24" viewBox="0 0 24 24" fill="none" xmlns="http://www.w3.org/2000/svg">
<path fill-rule="evenodd" clip-rule="evenodd" d="M8.35352,5.74995h-1.35352c-0.69036,0 -1.25,0.55965 -1.25,1.25v12.00005c0,0.6903 0.55964,1.25 1.25,1.25h10c0.6904,0 1.25,-0.5597 1.25,-1.25v-12.00005c0,-0.69035 -0.5596,-1.25 -1.25,-1.25h-1.3535c-0.3265,1.15426 -1.3877,2 -2.6465,2h-2c-1.25878,0 -2.32002,-0.84574 -2.64648,-2zM15.6465,4.24995h1.3535c1.5188,0 2.75,1.23122 2.75,2.75v12.00005c0,1.5187 -1.2312,2.75 -2.75,2.75h-10c-1.51878,0 -2.75,-1.2313 -2.75,-2.75v-12.00005c0,-1.51878 1.23122,-2.75 2.75,-2.75h1.35352c0.32646,-1.15425 1.3877,-2 2.64648,-2h2c1.2588,0 2.32,0.84575 2.6465,2zM11,6.24995h2c0.6904,0 1.25,-0.55964 1.25,-1.25c0,-0.69035 -0.5596,-1.25 -1.25,-1.25h-2c-0.6904,0 -1.25,0.55965 -1.25,1.25c0,0.69036 0.5596,1.25 1.25,1.25zM12.25,10.5c0,-0.4143 0.3358,-0.75005 0.75,-0.75005h2c0.4142,0 0.75,0.33575 0.75,0.75005c0,0.4142 -0.3358,0.75 -0.75,0.75h-2c-0.4142,0 -0.75,-0.3358 -0.75,-0.75zM8,10.5c0,-0.55233 0.44772,-1.00005 1,-1.00005c0.55228,0 1,0.44772 1,1.00005c0,0.5522 -0.44772,1 -1,1c-0.55228,0 -1,-0.4478 -1,-1zM12.25,14c0,-0.4143 0.3358,-0.75 0.75,-0.75h2c0.4142,0 0.75,0.3357 0.75,0.75c0,0.4142 -0.3358,0.75 -0.75,0.75h-2c-0.4142,0 -0.75,-0.3358 -0.75,-0.75zM15,16.75c0.4142,0 0.75,0.3357 0.75,0.75c0,0.4142 -0.3358,0.75 -0.75,0.75h-2c-0.4142,0 -0.75,-0.3358 -0.75,-0.75c0,-0.4143 0.3358,-0.75 0.75,-0.75zM10,14c0,0.5522 -0.44772,1 -1,1c-0.55228,0 -1,-0.4478 -1,-1c0,-0.5523 0.44772,-1 1,-1c0.55228,0 1,0.4477 1,1zM8,17.5c0,-0.5523 0.44772,-1 1,-1c0.55228,0 1,0.4477 1,1c0,0.5522 -0.44772,1 -1,1c-0.55228,0 -1,-0.4478 -1,-1z" fill="#002B51"/>
</svg>

<svg width="24" height="24" viewBox="0 0 24 24" fill="none" xmlns="http://www.w3.org/2000/svg">
<path fill-rule="evenodd" clip-rule="evenodd" d="M8.35352 5.74995H7C6.30964 5.74995 5.75 6.3096 5.75 6.99995V19C5.75 19.6903 6.30964 20.25 7 20.25H17C17.6904 20.25 18.25 19.6903 18.25 19V6.99995C18.25 6.3096 17.6904 5.74995 17 5.74995H15.6465C15.32 6.90421 14.2588 7.74995 13 7.74995H11C9.74122 7.74995 8.67998 6.90421 8.35352 5.74995ZM15.6465 4.24995H17C18.5188 4.24995 19.75 5.48117 19.75 6.99995V19C19.75 20.5187 18.5188 21.75 17 21.75H7C5.48122 21.75 4.25 20.5187 4.25 19V6.99995C4.25 5.48117 5.48122 4.24995 7 4.24995H8.35352C8.67998 3.0957 9.74122 2.24995 11 2.24995H13C14.2588 2.24995 15.32 3.0957 15.6465 4.24995ZM9.75 4.99995C9.75 4.3096 10.3096 3.74995 11 3.74995H13C13.6904 3.74995 14.25 4.3096 14.25 4.99995C14.25 5.69031 13.6904 6.24995 13 6.24995H11C10.3096 6.24995 9.75 5.69031 9.75 4.99995ZM12.25 10.5C12.25 10.0857 12.5858 9.74995 13 9.74995H15C15.4142 9.74995 15.75 10.0857 15.75 10.5C15.75 10.9142 15.4142 11.25 15 11.25H13C12.5858 11.25 12.25 10.9142 12.25 10.5ZM9 11.5C9.55228 11.5 10 11.0522 10 10.5C10 9.94767 9.55228 9.49995 9 9.49995C8.44772 9.49995 8 9.94767 8 10.5C8 11.0522 8.44772 11.5 9 11.5ZM12.25 14C12.25 13.5857 12.5858 13.25 13 13.25H15C15.4142 13.25 15.75 13.5857 15.75 14C15.75 14.4142 15.4142 14.75 15 14.75H13C12.5858 14.75 12.25 14.4142 12.25 14ZM13 16.75C12.5858 16.75 12.25 17.0857 12.25 17.5C12.25 17.9142 12.5858 18.25 13 18.25H15C15.4142 18.25 15.75 17.9142 15.75 17.5C15.75 17.0857 15.4142 16.75 15 16.75H13ZM10 14C10 14.5522 9.55228 15 9 15C8.44772 15 8 14.5522 8 14C8 13.4477 8.44772 13 9 13C9.55228 13 10 13.4477 10 14ZM9 18.5C9.55228 18.5 10 18.0522 10 17.5C10 16.9477 9.55228 16.5 9 16.5C8.44772 16.5 8 16.9477 8 17.5C8 18.0522 8.44772 18.5 9 18.5Z" fill="#002B51"/>
</svg>
